X:1804
T:Vals Akabat
R:Vals
C: Anton Teljebäck


Z:Anton Teljebäck
M:3/4
L:1/8
K:A
|:cc |c2 c(c c)c | (cB) Az cc | c2 c(c c)c | (cB) Az cc |c2 c(c c)c | (cB) Az cc | B2 E(F F)G | Az A2 :|
|: ez e2z2 | (ae) (be) (c'e) | (d'e) (c'e) (be) | az e2z2 | f2 B(c c)^d | ez e2z2 | ez e2z2 | (ae) (be) (c'e) | (d'e) (c'e) (be) | az e2z2 | B2 E(F F)G | Az A2z2 :|
(:musicend:)



(:music:)
